lib/svgs/convert.svg

<svg xmlns="http://www.w3.org/2000/svg" viewBox="0 0 20 20">
    <path fill="#000" fill-rule="evenodd" d="M11.7141001,9.50312808 L11.7141,12.1457 C11.7141,12.4770708 11.9827292,12.7457 12.3141,12.7457 C12.6454708,12.7457 12.9141,12.4770708 12.9141,12.1457 L12.9141,8.0547 C12.9141,7.72332915 12.6454708,7.4547 12.3141,7.4547 C12.3140005,7.4547 12.3139941,7.4547 12.3139878,7.4547 L8.2231,7.4547 C7.89172915,7.4547 7.6231,7.72332915 7.6231,8.0547 C7.6231,8.38607085 7.89172915,8.6547 8.2231,8.6547 L10.8654718,8.65470004 L3.17573593,16.3444359 C2.94142136,16.5787505 2.94142136,16.9586495 3.17573593,17.1929641 C3.41005051,17.4272786 3.78994949,17.4272786 4.02426407,17.1929641 L11.7141001,9.50312808 L11.7141001,9.50312808 L11.7141001,9.50312808 L11.7141001,9.50312808 Z M5.41400005,3.20000005 L15.1230004,3.20000005 L15.1230004,17 L8.223,17 C7.89162915,17 7.623,17.2686292 7.623,17.6 C7.623,17.9313708 7.89162915,18.2 8.223,18.2 L15.723,18.2 C16.0543708,18.2 16.323,17.9313708 16.323,17.6 L16.323,2.6 C16.323,2.26862915 16.0543708,2 15.723,2 L4.814,2 C4.48262915,2 4.214,2.26862915 4.214,2.6 L4.214,10.782 C4.214,11.1133708 4.48262915,11.382 4.814,11.382 C5.14537085,11.382 5.414,11.1133708 5.414,10.782 L5.41400005,3.20000005 L5.41400005,3.20000005 Z"/>
</svg>

<svg xmlns="http://www.w3.org/2000/svg" viewBox="0 0 20 20">
    <path fill="#000" fill-rule="evenodd" d="M11.714 9.503v2.643a.6.6 0 0 0 1.2 0V8.055a.6.6 0 0 0-.6-.6h-4.09a.6.6 0 1 0 0 1.2h2.641l-7.69 7.69a.6.6 0 0 0 .85.848l7.69-7.69M5.413 3.2h9.709V17h-6.9a.6.6 0 0 0 0 1.2h7.5a.6.6 0 0 0 .6-.6v-15a.6.6 0 0 0-.6-.6H4.814a.6.6 0 0 0-.6.6v8.182a.6.6 0 0 0 1.2 0V3.2"/>
</svg>
